public/new/vuesaxboldtickcircle1.svg

<svg fill="none" height="20" viewBox="0 0 20 20" width="20" xmlns="http://www.w3.org/2000/svg" xmlns:xlink="http://www.w3.org/1999/xlink"><linearGradient id="a" gradientUnits="userSpaceOnUse" x1="10.0003" x2="10.0003" y1="1.66699" y2="18.3337"><stop offset="0" stop-color="#34c796"/><stop offset="1" stop-color="#0b7a55"/></linearGradient><path d="m10.0003 1.66699c-4.59164 0-8.33331 3.74167-8.33331 8.33331 0 4.5917 3.74167 8.3334 8.33331 8.3334 4.5917 0 8.3334-3.7417 8.3334-8.3334 0-4.59164-3.7417-8.33331-8.3334-8.33331zm3.9834 6.41667-4.72504 4.72504c-.11667.1166-.275.1833-.44167.1833-.16666 0-.325-.0667-.44166-.1833l-2.35834-2.3584c-.24166-.2416-.24166-.64164 0-.88331.24167-.24166.64167-.24166.88334 0l1.91666 1.91671 4.28331-4.28337c.2417-.24167.6417-.24167.8834 0 .2416.24166.2416.63333 0 .88333z" fill="url(#a)"/></svg>

<svg width="20" height="20" viewBox="0 0 20 20" fill="none" xmlns="http://www.w3.org/2000/svg">
<path d="M10.0003 1.66699C5.40866 1.66699 1.66699 5.40866 1.66699 10.0003C1.66699 14.592 5.40866 18.3337 10.0003 18.3337C14.592 18.3337 18.3337 14.592 18.3337 10.0003C18.3337 5.40866 14.592 1.66699 10.0003 1.66699ZM13.9837 8.08366L9.25866 12.8087C9.14199 12.9253 8.98366 12.992 8.81699 12.992C8.65033 12.992 8.49199 12.9253 8.37533 12.8087L6.01699 10.4503C5.77533 10.2087 5.77533 9.80866 6.01699 9.56699C6.25866 9.32533 6.65866 9.32533 6.90033 9.56699L8.81699 11.4837L13.1003 7.20033C13.342 6.95866 13.742 6.95866 13.9837 7.20033C14.2253 7.44199 14.2253 7.83366 13.9837 8.08366Z" fill="url(#paint0_linear_181_20139)"/>
<defs>
<linearGradient id="paint0_linear_181_20139" x1="10.0003" y1="1.66699" x2="10.0003" y2="18.3337" gradientUnits="userSpaceOnUse">
<stop stop-color="#34C796"/>
<stop offset="1" stop-color="#0B7A55"/>
</linearGradient>
</defs>
</svg>
